X:1
T:Title
L:1/8
Q:1/4=130
M:6/4
K:A
V:1 treble nm="Church Organ, Staff"
V:1
 E2 G4 F2 E4 | F2 G4 A2 B4 | G2 c4 B2 A4 | G2 A4- A3/2 z/ z2 z2 | A2 A4 G2 F4 | G2 A4 c2 B4 | %6
w: By~Rev.~R.~F.~Smith * * *||||||
 c2 ^d2 c2 B2 c4 | ^d2 B4- B3/2 z/ z2 z2 | B2 B4 A2 G2 A2 | B2 c4- c3/2 z/ B4 | G2 A2 A2 G2 F4 | %11
w: |||||
 c2 B4- B3/2 z/ z2 z2 | B2 c4 B2 A2 B2 | c2 B4 A2 G4 | A2 F2 G2 A2 G4 | F2 E4- E2 E4 |] %16
w: |||||

